svg/pressure_alt.svg

<svg xmlns="http://www.w3.org/2000/svg" width="24" height="24" viewBox="0 0 24 24"><path d="M13 19v-1.07A8 8 0 0 0 20 10a8 8 0 1 0-9 7.93V19H2v3h20v-3zm-5.24-4.76a6 6 0 0 1-1.64-3.07 5.9 5.9 0 0 1 .34-3.47 6 6 0 1 1 7.84 7.84 5.9 5.9 0 0 1-3.47.34 6 6 0 0 1-3.07-1.64z"/><path d="M13.05 14.05A1.39 1.39 0 0 0 13.5 13c-.17-1.9-1.5-7.5-1.5-7.5s-1.33 5.6-1.5 7.5a1.39 1.39 0 0 0 .5 1.05 1.45 1.45 0 0 0 2.1 0zM7 10h1v1H7zM16 10h1v1h-1zM15 7h1v1h-1zM8 7h1v1H8zM10 5h1v1h-1zM13 5h1v1h-1zM10 17h4v3h-4z"/></svg>

<svg xmlns="http://www.w3.org/2000/svg" width="24" height="24" viewBox="0 0 24 24">
<path d="M13,19V17.93A8,8,0,0,0,20,10a8,8,0,1,0-9,7.93V19H2v3H22V19ZM7.76,14.24a6,6,0,0,1-1.64-3.07A5.9,5.9,0,0,1,6.46,7.7a6,6,0,1,1,7.84,7.84,5.9,5.9,0,0,1-3.47.34A6,6,0,0,1,7.76,14.24Z" />
<path d="M13.05,14.05A1.39,1.39,0,0,0,13.5,13C13.33,11.1,12,5.5,12,5.5s-1.33,5.6-1.5,7.5A1.39,1.39,0,0,0,11,14.05a1.45,1.45,0,0,0,2.1,0Z" />
<rect x="7" y="10" width="1" height="1" />
<rect x="16" y="10" width="1" height="1" />
<rect x="15" y="7" width="1" height="1" />
<rect x="8" y="7" width="1" height="1" />
<rect x="10" y="5" width="1" height="1" />
<rect x="13" y="5" width="1" height="1" />
<rect x="10" y="17" width="4" height="3" />
</svg>
